.local/share/icons/Gruvbox-Plus-Dark/panel/22/yate-tray-notification.svg

<svg xmlns="http://www.w3.org/2000/svg" width="22" height="22" version="1.1">
 <defs>
  <style id="current-color-scheme" type="text/css">
   .ColorScheme-Text { color:#ebdbb2; } .ColorScheme-Highlight { color:#458588; }
  </style>
 </defs>
 <path style="fill:currentColor;opacity:0.3" class="ColorScheme-Text" d="M 10.601562 3.0019531 C 8.4833395 3.0371311 6.8325133 3.8238158 5.2695312 5.375 C 3.5801833 7.0515966 2.9718666 8.5913307 2.9785156 11.169922 C 2.9809775 12.133595 3.0715563 12.903026 3.2421875 13.570312 C 3.5339297 13.249922 3.9418167 13.031401 4.4003906 13.003906 C 5.0940164 12.962354 5.7251147 13.370455 6.0253906 13.951172 A 1.0001 1.0001 0 0 0 6.0253906 13.953125 L 7.40625 16.630859 L 8.4160156 18.582031 C 8.64676 18.647817 8.88848 18.726156 9.0878906 18.769531 C 10.03321 18.975158 10.338029 19.031078 11.414062 18.986328 C 13.67654 18.892248 15.208577 18.258444 16.654297 16.818359 C 18.111381 15.366954 18.839188 13.62156 18.980469 11.242188 C 19.233399 6.9824861 16.956592 3.9828678 12.888672 3.2167969 C 12.06498 3.0616791 11.307637 2.9902273 10.601562 3.0019531 z M 8.5351562 6 C 8.8008523 6 9.2765905 6.5671789 9.6328125 7.3066406 C 10.02104 8.1125546 10.017088 8.3566047 9.6152344 8.6210938 C 9.0840144 8.9707318 8.6464844 9.4440728 8.6464844 9.6679688 C 8.6464844 9.7835767 8.9823111 10.230266 9.3925781 10.660156 C 10.063192 11.362844 10.172454 11.549712 10.478516 12.519531 C 10.669644 13.125156 10.910315 13.655226 11.027344 13.728516 C 11.192279 13.831808 11.398191 13.771056 12.009766 13.433594 L 12.255859 13.296875 C 12.740589 13.029407 12.79398 12.931906 13.126953 13.433594 C 13.31656 13.668172 13.611263 14.154174 13.78125 14.513672 C 14.149859 15.293221 14.085838 15.47173 13.332031 15.773438 C 11.651027 16.446247 10.697147 15.724018 8.7050781 12.275391 C 7.0356761 9.3853564 6.7122131 8.2880673 7.2207031 7.2539062 C 7.4865161 6.7132951 8.2345442 6 8.5351562 6 z"/>
 <path style="fill:currentColor" class="ColorScheme-Text" d="M 4.5332031 14 A 0.73531259 0.82233521 0 0 0 4.4609375 14.001953 A 0.73531259 0.82233521 0 0 0 3.8632812 14.410156 L 2.4785156 17.087891 L 1.0976562 19.767578 A 0.73531259 0.82233521 0 0 0 1.734375 21 L 4.5 21 L 7.265625 21 A 0.73531259 0.82233521 0 0 0 7.9023438 19.767578 L 6.5175781 17.087891 L 5.1367188 14.410156 A 0.73531259 0.82233521 0 0 0 4.5332031 14 z M 4 15 L 5 15 L 5 18 L 4 18 L 4 15 z M 4 19 L 5 19 L 5 20 L 4 20 L 4 19 z"/>
</svg>

<svg width="22" height="22" version="1.1" xmlns="http://www.w3.org/2000/svg">
  <defs>
    <style id="current-color-scheme" type="text/css">.ColorScheme-Text { color:#ebdbb2; } .ColorScheme-Highlight { color:#458588; } .ColorScheme-NeutralText { color:#fe8019; } .ColorScheme-PositiveText { color:#689d6a; } .ColorScheme-NegativeText { color:#fb4934; }</style>
  </defs>
  <path class="ColorScheme-Text" d="m10.6 3.002c-2.118 0.03518-3.769 0.8219-5.332 2.373-1.689 1.677-2.298 3.216-2.291 5.795 0.002462 0.9637 0.09304 1.733 0.2637 2.4 0.2917-0.3204 0.6996-0.5389 1.158-0.5664 0.6936-0.04155 1.325 0.3665 1.625 0.9473a1 1 0 0 0 0 0.001953l1.381 2.678 1.01 1.951c0.2307 0.06579 0.4725 0.1441 0.6719 0.1875 0.9453 0.2056 1.25 0.2615 2.326 0.2168 2.262-0.09408 3.795-0.7279 5.24-2.168 1.457-1.451 2.185-3.197 2.326-5.576 0.2529-4.26-2.024-7.259-6.092-8.025-0.8237-0.1551-1.581-0.2266-2.287-0.2148zm-2.066 2.998c0.2657 0 0.7414 0.5672 1.098 1.307 0.3882 0.8059 0.3843 1.05-0.01758 1.314-0.5312 0.3496-0.9688 0.823-0.9688 1.047 0 0.1156 0.3358 0.5623 0.7461 0.9922 0.6706 0.7027 0.7799 0.8896 1.086 1.859 0.1911 0.6056 0.4318 1.136 0.5488 1.209 0.1649 0.1033 0.3708 0.04254 0.9824-0.2949l0.2461-0.1367c0.4847-0.2675 0.5381-0.365 0.8711 0.1367 0.1896 0.2346 0.4843 0.7206 0.6543 1.08 0.3686 0.7795 0.3046 0.9581-0.4492 1.26-1.681 0.6728-2.635-0.04942-4.627-3.498-1.669-2.89-1.993-3.987-1.484-5.021 0.2658-0.5406 1.014-1.254 1.314-1.254z" fill="currentColor" opacity=".3"/>
  <path class="ColorScheme-Text" d="m4.533 14a0.7353 0.8223 0 0 0-0.07227 0.001953 0.7353 0.8223 0 0 0-0.5977 0.4082l-1.385 2.678-1.381 2.68a0.7353 0.8223 0 0 0 0.6367 1.232h2.766 2.766a0.7353 0.8223 0 0 0 0.6367-1.232l-1.385-2.68-1.381-2.678a0.7353 0.8223 0 0 0-0.6035-0.4102zm-0.5332 1h1v3h-1v-3zm0 4h1v1h-1v-1z" fill="currentColor"/>
</svg>
